src/resources/img/mm.svg

<?xml version="1.0" encoding="UTF-8" standalone="no"?>
<!-- Generator: Adobe Illustrator 19.0.0, SVG Export Plug-In . SVG Version: 6.00 Build 0)  -->

<svg
   xmlns:dc="http://purl.org/dc/elements/1.1/"
   xmlns:cc="http://creativecommons.org/ns#"
   xmlns:rdf="http://www.w3.org/1999/02/22-rdf-syntax-ns#"
   xmlns:svg="http://www.w3.org/2000/svg"
   xmlns="http://www.w3.org/2000/svg"
   xmlns:xlink="http://www.w3.org/1999/xlink"
   xmlns:sodipodi="http://sodipodi.sourceforge.net/DTD/sodipodi-0.dtd"
   xmlns:inkscape="http://www.inkscape.org/namespaces/inkscape"
   version="1.1"
   id="Layer_1"
   x="0px"
   y="0px"
   viewBox="0 0 247.038 247.038"
   style="enable-background:new 0 0 247.038 247.038;"
   xml:space="preserve"
   sodipodi:docname="chemhunt.svg"
   inkscape:version="0.92.3 (2405546, 2018-03-11)"><metadata
   id="metadata47"><rdf:RDF><cc:Work
       rdf:about=""><dc:format>image/svg+xml</dc:format><dc:type
         rdf:resource="http://purl.org/dc/dcmitype/StillImage" /></cc:Work></rdf:RDF></metadata><defs
   id="defs45"><linearGradient
   inkscape:collect="always"
   id="linearGradient874"><stop
     style="stop-color:#00ff66;stop-opacity:1"
     offset="0"
     id="stop870" /><stop
     style="stop-color:#0082af;stop-opacity:1"
     offset="1"
     id="stop872" /></linearGradient>
	

		
	
			
			
		<linearGradient
   inkscape:collect="always"
   xlink:href="#linearGradient874"
   id="linearGradient878"
   gradientUnits="userSpaceOnUse"
   x1="18.671251"
   y1="5.2334208"
   x2="230.98279"
   y2="241.28032" /></defs><sodipodi:namedview
   pagecolor="#ffffff"
   bordercolor="#666666"
   borderopacity="1"
   objecttolerance="10"
   gridtolerance="10"
   guidetolerance="10"
   inkscape:pageopacity="0"
   inkscape:pageshadow="2"
   inkscape:window-width="1920"
   inkscape:window-height="951"
   id="namedview43"
   showgrid="false"
   inkscape:zoom="0.95531864"
   inkscape:cx="-122.29967"
   inkscape:cy="81.237085"
   inkscape:window-x="0"
   inkscape:window-y="27"
   inkscape:window-maximized="1"
   inkscape:current-layer="Layer_1" />
<path
   d="M 162.63281 0 C 152.41581 0 144.10547 8.3103438 144.10547 18.527344 C 144.10547 28.744344 152.41581 37.056641 162.63281 37.056641 C 168.66281 37.056641 173.97728 34.116578 177.36328 29.642578 L 226.41016 57.960938 L 226.41016 114.9668 L 177.04297 143.46875 L 127.67578 114.9668 L 127.67578 55.583984 C 127.67578 54.160984 126.9095 52.970469 125.8125 52.230469 C 125.7165 52.163469 125.63716 52.076578 125.53516 52.017578 L 125.26562 51.861328 C 125.21762 51.840328 125.18081 51.805156 125.13281 51.785156 L 72.050781 21.136719 C 70.775781 20.400719 69.207594 20.400719 67.933594 21.136719 L 14.449219 52.017578 C 13.174219 52.753578 12.390625 54.111031 12.390625 55.582031 L 12.390625 117.34375 C 12.390625 118.81575 13.174219 120.1732 14.449219 120.9082 L 65.914062 150.62305 L 65.914062 212.04102 C 65.914062 213.51302 66.699609 214.87242 67.974609 215.60742 L 121.45898 246.48633 C 122.09598 246.85433 122.80558 247.03711 123.51758 247.03711 C 124.22958 247.03711 124.93817 246.85433 125.57617 246.48633 L 175.30273 217.77734 C 178.54973 220.57834 182.72289 222.33398 187.33789 222.33398 C 197.55489 222.33398 205.86523 214.02364 205.86523 203.80664 C 205.86523 193.58964 197.55489 185.27734 187.33789 185.27734 C 177.12089 185.27734 168.80859 193.58964 168.80859 203.80664 C 168.80859 206.41164 169.36194 208.88572 170.33594 211.13672 L 123.51953 238.16602 L 74.152344 209.66406 L 74.152344 150.57812 L 123.51953 122.07422 L 174.98438 151.78906 C 175.62138 152.15706 176.33292 152.3418 177.04492 152.3418 C 177.75592 152.3418 178.46552 152.15706 179.10352 151.78906 L 232.58789 120.91016 C 233.86289 120.17416 234.64648 118.81475 234.64648 117.34375 L 234.64648 55.583984 C 234.64348 54.111984 233.86089 52.753578 232.58789 52.017578 L 180.79883 22.115234 C 181.02783 20.953234 181.16016 19.756344 181.16016 18.527344 C 181.15916 8.3113437 172.84981 0 162.63281 0 z M 162.63281 8.234375 C 168.30781 8.234375 172.92578 12.852344 172.92578 18.527344 C 172.92578 24.202344 168.30781 28.820312 162.63281 28.820312 C 156.95781 28.820312 152.33984 24.202344 152.33984 18.527344 C 152.33984 12.852344 156.95781 8.234375 162.63281 8.234375 z M 69.992188 29.457031 L 119.35938 57.960938 L 119.36133 114.9668 L 69.992188 143.46875 L 20.625 114.9668 L 20.625 57.960938 L 69.992188 29.457031 z M 70.392578 44.556641 C 69.674328 44.561141 68.956906 44.753812 68.316406 45.132812 L 35.800781 64.392578 C 33.844781 65.550578 33.198422 68.077203 34.357422 70.033203 C 35.125422 71.330203 36.496297 72.052734 37.904297 72.052734 C 38.618297 72.052734 39.338047 71.868516 39.998047 71.478516 L 70.441406 53.445312 L 93.560547 66.792969 L 66.152344 82.619141 A 5.0005 5.0005 0 0 0 63.652344 86.949219 L 63.652344 121.85156 A 5.0005 5.0005 0 1 0 73.652344 121.85156 L 73.652344 89.835938 L 104.29883 72.140625 A 5.0005 5.0005 0 0 0 103.67383 63.123047 L 72.474609 45.107422 C 71.830109 44.734422 71.110828 44.552141 70.392578 44.556641 z M 187.33594 193.51367 C 193.01094 193.51367 197.62891 198.13164 197.62891 203.80664 C 197.62891 209.48164 193.01094 214.09961 187.33594 214.09961 C 184.96494 214.09961 182.80645 213.2612 181.06445 211.9082 C 181.04445 211.2502 180.92036 210.59242 180.56836 209.98242 C 179.98436 208.97442 179.03533 208.31764 177.98633 208.05664 C 177.39233 206.75764 177.04297 205.32564 177.04297 203.80664 C 177.04297 198.13164 181.65994 193.51367 187.33594 193.51367 z "
   id="path2"
   style="fill-opacity:1;fill:url(#linearGradient878)" />
<g
   id="g12">
</g>
<g
   id="g14">
</g>
<g
   id="g16">
</g>
<g
   id="g18">
</g>
<g
   id="g20">
</g>
<g
   id="g22">
</g>
<g
   id="g24">
</g>
<g
   id="g26">
</g>
<g
   id="g28">
</g>
<g
   id="g30">
</g>
<g
   id="g32">
</g>
<g
   id="g34">
</g>
<g
   id="g36">
</g>
<g
   id="g38">
</g>
<g
   id="g40">
</g>
</svg>

<svg xmlns="http://www.w3.org/2000/svg" xmlns:xlink="http://www.w3.org/1999/xlink" viewBox="0 0 247.038 247.038"><defs><linearGradient id="a"><stop offset="0" stop-color="#0f6"/><stop offset="1" stop-color="#0082af"/></linearGradient><linearGradient xlink:href="#a" id="b" gradientUnits="userSpaceOnUse" x1="18.671" y1="5.233" x2="230.983" y2="241.28"/></defs><path d="M162.633 0c-10.217 0-18.528 8.31-18.528 18.527s8.31 18.53 18.528 18.53c6.03 0 11.344-2.94 14.73-7.414L226.41 57.96v57.006l-49.367 28.502-49.367-28.502V55.584c0-1.423-.767-2.614-1.864-3.354-.096-.067-.175-.153-.277-.212l-.27-.157c-.047-.02-.084-.056-.132-.076L72.05 21.137a4.115 4.115 0 00-4.117 0l-53.485 30.88a4.114 4.114 0 00-2.058 3.565v61.762c0 1.472.783 2.83 2.058 3.564l51.465 29.715v61.418c0 1.472.786 2.831 2.06 3.566l53.485 30.88c.637.367 1.347.55 2.059.55a4.11 4.11 0 002.058-.55l49.727-28.71c3.247 2.801 7.42 4.557 12.035 4.557 10.217 0 18.527-8.31 18.527-18.527s-8.31-18.53-18.527-18.53-18.53 8.313-18.53 18.53c0 2.605.554 5.079 1.528 7.33l-46.816 27.029-49.368-28.502v-59.086l49.368-28.504 51.464 29.715a4.117 4.117 0 004.12 0l53.484-30.879a4.117 4.117 0 002.058-3.566v-61.76a4.126 4.126 0 00-2.058-3.566l-51.79-29.903c.23-1.162.362-2.359.362-3.588C181.16 8.311 172.85 0 162.633 0zm0 8.234c5.675 0 10.293 4.618 10.293 10.293 0 5.675-4.618 10.293-10.293 10.293-5.675 0-10.293-4.618-10.293-10.293 0-5.675 4.618-10.293 10.293-10.293zm-92.64 21.223l49.366 28.504.002 57.006-49.369 28.502-49.367-28.502V57.96l49.367-28.504zm.4 15.1a4.126 4.126 0 00-2.077.576l-32.515 19.26a4.117 4.117 0 004.197 7.086l30.443-18.034 23.12 13.348-27.409 15.826a5 5 0 00-2.5 4.33v34.903a5 5 0 1010 0V89.836L104.3 72.14a5 5 0 00-.625-9.018l-31.2-18.016a4.1 4.1 0 00-2.081-.55zm116.943 148.957c5.675 0 10.293 4.618 10.293 10.293 0 5.675-4.618 10.293-10.293 10.293-2.371 0-4.53-.839-6.272-2.192-.02-.658-.144-1.316-.496-1.926a4.108 4.108 0 00-2.582-1.925 10.182 10.182 0 01-.943-4.25c0-5.675 4.617-10.293 10.293-10.293z" fill="url(#b)"/></svg>
